packages/ui-icons/svg/Solid/user.svg

<svg viewBox="0 0 1920 1920" version="1.1" xmlns="http://www.w3.org/2000/svg">
    <path d="M1587.85365,1133.98588 C1478.18776,1091.63294 1364.34306,1061.92941 1248.57835,1042.72941 L1243.38306,1042.72941 C1378.91247,951.36 1468.24894,796.404706 1468.24894,621.12 L1468.24894,596.272941 C1440.01365,614.343529 1403.87247,638.061176 1353.16188,653.985882 C1337.23718,856.150588 1166.696,1016.41412 960.013647,1016.41412 C760.220706,1016.41412 594.084235,867.444706 569.237176,674.202353 C565.848941,657.261176 564.719529,639.303529 564.719529,621.12 L564.719529,560.131765 C566.074824,560.018824 566.978353,559.68 568.333647,559.454118 C578.837176,557.647059 588.211294,555.275294 597.698353,552.790588 C605.830118,550.757647 613.848941,548.611765 621.077176,546.127059 C628.983059,543.416471 636.550118,540.705882 643.665412,537.543529 C651.797176,534.042353 659.251294,530.428235 666.705412,526.588235 C671.787765,523.764706 677.096,521.28 681.839529,518.456471 C689.067765,514.164706 695.844235,509.985882 702.507765,505.694118 C705.896,503.435294 709.848941,501.176471 713.011294,499.143529 C717.867765,495.981176 722.611294,493.157647 727.354824,490.221176 C761.801882,468.649412 794.667765,451.821176 855.881882,451.708235 L856.107765,451.708235 C909.303059,451.708235 941.039529,463.792941 970.743059,480.734118 C980.568941,486.381176 990.281882,492.705882 1000.55953,499.256471 C1035.68424,522.070588 1074.536,546.804706 1134.28188,558.211765 C1134.95953,558.324706 1135.41129,558.663529 1136.08894,558.776471 C1156.41835,562.503529 1179.23247,564.649412 1205.096,564.649412 C1205.54776,564.649412 1205.88659,564.536471 1206.33835,564.536471 C1309.67953,564.310588 1363.55247,529.750588 1410.87482,499.143529 L1466.66776,464.696471 L1466.66776,464.583529 L1467.23247,464.131765 L1463.27953,442.785882 L1460.90776,427.312941 C1455.59953,392.865882 1445.66071,359.887059 1433.68894,327.811765 C1408.95482,261.063529 1371.11953,199.849412 1319.16659,148.009412 C1292.17365,120.790588 1261.56659,97.0729412 1229.94306,77.8729412 C1149.75482,27.1623529 1056.01365,-0.0564705882 960.013647,-0.0564705882 C739.778353,-0.0564705882 551.166588,141.12 481.143059,338.767059 C461.943059,391.849412 451.778353,448.32 451.778353,508.178824 L451.778353,621.12 C451.778353,640.32 452.907765,659.52 455.279529,677.590588 C472.107765,829.948235 557.152471,960.734118 677.999529,1042.16471 L672.917176,1042.16471 C561.105412,1060.57412 450.874824,1089.14824 344.484235,1129.35529 C203.872471,1182.66353 112.954824,1312.77176 112.954824,1461.06353 L112.954824,1669.10118 L139.721882,1685.59059 C311.957176,1792.54588 594.197176,1919.94353 960.013647,1919.94353 C1161.95247,1919.94353 1468.24894,1879.39765 1780.41835,1685.59059 L1807.07247,1669.10118 L1807.07247,1461.06353 C1807.07247,1316.16 1718.97835,1184.80941 1587.85365,1133.98588" stroke="none" stroke-width="1" fill-rule="evenodd"/>
</svg>

<svg viewBox="0 0 1920 1920" xmlns="http://www.w3.org/2000/svg">
    <path d="M1587.854 1133.986c-109.666-42.353-223.51-72.057-339.276-91.257h-5.195c135.53-91.369 224.866-246.324 224.866-421.609v-24.847c-28.235 18.07-64.377 41.788-115.087 57.713-15.925 202.165-186.466 362.428-393.148 362.428-199.793 0-365.93-148.97-390.777-342.212-3.388-16.94-4.517-34.898-4.517-53.082v-60.988c1.355-.113 2.258-.452 3.614-.678 10.503-1.807 19.877-4.179 29.364-6.663 8.132-2.033 16.15-4.18 23.38-6.664 7.905-2.71 15.472-5.421 22.587-8.583 8.132-3.502 15.586-7.116 23.04-10.956 5.083-2.823 10.391-5.308 15.135-8.132a662.834 662.834 0 0 0 20.668-12.762c3.388-2.259 7.34-4.518 10.503-6.55 4.857-3.163 9.6-5.986 14.344-8.923 34.447-21.572 67.313-38.4 128.527-38.513h.226c53.195 0 84.932 12.085 114.635 29.026 9.826 5.647 19.539 11.972 29.817 18.522 35.124 22.815 73.976 47.549 133.722 58.956.678.113 1.13.452 1.807.564 20.33 3.728 43.143 5.873 69.007 5.873.452 0 .79-.113 1.242-.113 103.342-.225 157.214-34.785 204.537-65.392l55.793-34.448v-.112l.564-.452-3.952-21.346-2.372-15.473c-5.308-34.447-15.247-67.426-27.22-99.501-24.733-66.748-62.568-127.963-114.521-179.803-26.993-27.218-57.6-50.936-89.224-70.136-80.188-50.71-173.93-77.93-269.93-77.93-220.235 0-408.846 141.177-478.87 338.824-19.2 53.082-29.365 109.553-29.365 169.412V621.12c0 19.2 1.13 38.4 3.502 56.47C472.108 829.949 557.152 960.735 678 1042.166h-5.083c-111.812 18.41-222.042 46.983-328.433 87.19-140.612 53.309-231.53 183.417-231.53 331.709V1669.1l26.768 16.49c172.235 106.955 454.475 234.353 820.292 234.353 201.938 0 508.235-40.546 820.404-234.353l26.654-16.49v-208.037c0-144.904-88.094-276.255-219.218-327.078" fill-rule="evenodd"/>
</svg>
